src/images/svg/symbols/marketbear-new.svg

<svg width="32" height="32" viewBox="0 0 32 32" fill="none" xmlns="http://www.w3.org/2000/svg">
<path fill-rule="evenodd" clip-rule="evenodd" d="M29 16C30.6569 16 32 14.6569 32 13C32 11.3431 30.6569 10 29 10C27.3431 10 26 11.3431 26 13C26 13.4631 26.1049 13.9018 26.2924 14.2934L18.5 22.0858L14 17.5858L9.49995 22.0858L4.99995 17.5858L0 22.5858V25.4142L4.99995 20.4142L9.49995 24.9142L14 20.4142L18.5 24.9142L27.7066 15.7076C28.0982 15.895 28.5368 16 29 16ZM29 14C29.5523 14 30 13.5523 30 13C30 12.4477 29.5523 12 29 12C28.4477 12 28 12.4477 28 13C28 13.5523 28.4477 14 29 14Z" fill="#85ACB0"/>
<path d="M22.0172 14H0V12H24L22.0172 14Z" fill="#85ACB0"/>
<path d="M24 32H3.05176e-05V30H24V32Z" fill="#85ACB0"/>
<path d="M21.793 23.2072L23.593 25.0072L25.0072 23.593L23.2072 21.793L21.793 23.2072Z" fill="#FF444F"/>
<path fill-rule="evenodd" clip-rule="evenodd" d="M26.2925 27.7067L24.493 25.9072L25.9072 24.493L27.7067 26.2925C28.0983 26.105 28.537 26.0001 29.0001 26.0001C30.657 26.0001 32.0001 27.3432 32.0001 29.0001C32.0001 30.6569 30.657 32.0001 29.0001 32.0001C27.3433 32.0001 26.0001 30.6569 26.0001 29.0001C26.0001 28.5369 26.1051 28.0983 26.2925 27.7067ZM30.0001 29.0001C30.0001 29.5524 29.5524 30.0001 29.0001 30.0001C28.4478 30.0001 28.0001 29.5524 28.0001 29.0001C28.0001 28.4478 28.4478 28.0001 29.0001 28.0001C29.5524 28.0001 30.0001 28.4478 30.0001 29.0001Z" fill="#FF444F"/>
<path d="M0 2C0 0.89543 0.895431 0 2 0H17C18.1046 0 19 0.895431 19 2V8C19 9.10457 18.1046 10 17 10H2C0.895431 10 0 9.10457 0 8V2Z" fill="#0E0E0E"/>
<path d="M3.05598 8.00031V7.03231H4.55998V3.28831H4.48798L3.35198 4.77631L2.58398 4.17631L3.91998 2.41631H5.75998V7.03231H6.94398V8.00031H3.05598Z" fill="white"/>
<path d="M9.50086 8.09631C8.77019 8.09631 8.22886 7.84298 7.87686 7.33631C7.52486 6.82965 7.34886 6.12031 7.34886 5.20831C7.34886 4.29631 7.52486 3.58698 7.87686 3.08031C8.22886 2.57365 8.77019 2.32031 9.50086 2.32031C10.2315 2.32031 10.7729 2.57365 11.1249 3.08031C11.4769 3.58698 11.6529 4.29631 11.6529 5.20831C11.6529 6.12031 11.4769 6.82965 11.1249 7.33631C10.7729 7.84298 10.2315 8.09631 9.50086 8.09631ZM9.50086 7.08031C9.82086 7.08031 10.0422 6.96298 10.1649 6.72831C10.2875 6.49365 10.3489 6.16298 10.3489 5.73631V4.68031C10.3489 4.25365 10.2875 3.92298 10.1649 3.68831C10.0422 3.45365 9.82086 3.33631 9.50086 3.33631C9.18086 3.33631 8.95953 3.45365 8.83686 3.68831C8.71419 3.92298 8.65286 4.25365 8.65286 4.68031V5.73631C8.65286 6.16298 8.71419 6.49365 8.83686 6.72831C8.95953 6.96298 9.18086 7.08031 9.50086 7.08031Z" fill="white"/>
<path d="M14.2977 8.09631C13.5671 8.09631 13.0257 7.84298 12.6737 7.33631C12.3217 6.82965 12.1457 6.12031 12.1457 5.20831C12.1457 4.29631 12.3217 3.58698 12.6737 3.08031C13.0257 2.57365 13.5671 2.32031 14.2977 2.32031C15.0284 2.32031 15.5697 2.57365 15.9217 3.08031C16.2737 3.58698 16.4497 4.29631 16.4497 5.20831C16.4497 6.12031 16.2737 6.82965 15.9217 7.33631C15.5697 7.84298 15.0284 8.09631 14.2977 8.09631ZM14.2977 7.08031C14.6177 7.08031 14.8391 6.96298 14.9617 6.72831C15.0844 6.49365 15.1457 6.16298 15.1457 5.73631V4.68031C15.1457 4.25365 15.0844 3.92298 14.9617 3.68831C14.8391 3.45365 14.6177 3.33631 14.2977 3.33631C13.9777 3.33631 13.7564 3.45365 13.6337 3.68831C13.5111 3.92298 13.4497 4.25365 13.4497 4.68031V5.73631C13.4497 6.16298 13.5111 6.49365 13.6337 6.72831C13.7564 6.96298 13.9777 7.08031 14.2977 7.08031Z" fill="white"/>
</svg>

<svg width="32" height="32" fill="none" xmlns="http://www.w3.org/2000/svg"><path fill-rule="evenodd" clip-rule="evenodd" d="M29 16a3 3 0 1 0-2.708-1.707L18.5 22.086l-4.5-4.5-4.5 4.5-4.5-4.5-5 5v2.828l5-5 4.5 4.5 4.5-4.5 4.5 4.5 9.207-9.206c.391.187.83.292 1.293.292Zm0-2a1 1 0 1 0 0-2 1 1 0 0 0 0 2Z" fill="#85ACB0"/><path d="M22.017 14H0v-2h24l-1.983 2ZM24 32H0v-2h24v2Z" fill="#85ACB0"/><path d="m21.793 23.207 1.8 1.8 1.414-1.414-1.8-1.8-1.414 1.414Z" fill="#FF444F"/><path fill-rule="evenodd" clip-rule="evenodd" d="m26.293 27.707-1.8-1.8 1.414-1.414 1.8 1.8a3 3 0 1 1-1.414 1.414ZM30 29a1 1 0 1 1-2 0 1 1 0 0 1 2 0Z" fill="#FF444F"/><path d="M0 2a2 2 0 0 1 2-2h15a2 2 0 0 1 2 2v6a2 2 0 0 1-2 2H2a2 2 0 0 1-2-2V2Z" fill="#0E0E0E"/><path d="M3.056 8v-.968H4.56V3.288h-.072L3.352 4.776l-.768-.6 1.336-1.76h1.84v4.616h1.184V8H3.056ZM9.5 8.096c-.73 0-1.271-.253-1.623-.76-.352-.506-.528-1.216-.528-2.128 0-.912.176-1.621.528-2.128.352-.506.893-.76 1.624-.76.73 0 1.272.254 1.624.76.352.507.528 1.216.528 2.128 0 .912-.176 1.622-.528 2.128-.352.507-.893.76-1.624.76Zm0-1.016c.32 0 .542-.117.665-.352.123-.234.184-.565.184-.992V4.68c0-.426-.062-.757-.184-.992-.123-.234-.344-.352-.664-.352-.32 0-.541.118-.664.352-.123.235-.184.566-.184.992v1.056c0 .427.061.758.184.992.123.235.344.352.664.352ZM14.298 8.096c-.73 0-1.272-.253-1.624-.76-.352-.506-.528-1.216-.528-2.128 0-.912.176-1.621.528-2.128.352-.506.893-.76 1.624-.76.73 0 1.272.254 1.624.76.352.507.528 1.216.528 2.128 0 .912-.176 1.622-.528 2.128-.352.507-.894.76-1.624.76Zm0-1.016c.32 0 .541-.117.664-.352.122-.234.184-.565.184-.992V4.68c0-.426-.062-.757-.184-.992-.123-.234-.344-.352-.664-.352-.32 0-.542.118-.664.352-.123.235-.184.566-.184.992v1.056c0 .427.061.758.184.992.122.235.344.352.664.352Z" fill="#fff"/></svg>
